X:1
T:Title
%%score { ( 1 3 ) | 2 }
L:1/8
Q:1/4=100
M:4/4
K:Ab
V:1 treble nm="Grand Piano"
V:3 treble 
V:2 bass 
V:1
 B>A G>F E3 B, | E2 =D2 E4 | c>B A>G F3 C | F2 =E2 F3 G | [FA]>[EG] [=DF]>[FA] [A=d] [Ac]2 [FA] | %5
w: Samuel~W.~Beazley * * * * *|||||
 G>E G>[Ac] [GB]3 [Gc] | [G=d]>[GB] G>[GB] [Gd] [Gd]2 [GB] |[M:15/16] z3/2 z3/2 z =d/- d3 | %8
w: |||
[M:1/8] B |[M:4/4] e8- | e8 | [Ge]>[GB] [GB]>[GB] [GB]>[B,EG] [B,FA]>[B,EG] | %12
w: ||||
 [A,F]->[A,-_DF-] [A,-CF-]>[A,-_CF-] [A,B,F]2 z z/ [B,AB]/ | e2- [Ae-]2 [Be-]3 [Be-] | %14
w: ||
 [Ae-]2 [Ge-][Ge-] [Ae-]3 [Ae] | [Ge]>[GB] [GB]>[GB] [EGB]>[B,EG] [B,FA]>[A,=DF] | [G,E]6 z2 |] %17
w: |||
V:2
 B,>A, G,>F, E,3 B,, | [E,G,B,]2 [B,,F,B,]2 [E,G,B,]4 | C>B, A,>G, F,3 C, | %3
 [F,A,C]2 [C,G,C]2 [F,A,C]3 [E,B,E] | [B,,B,]>[B,,B,] [B,,B,]>[B,,B,] [B,,B,] [B,,B,]2 [B,,B,] | %5
 [E,B,E]>[E,G,] [E,B,E]>[E,E] [E,E]3 [E,B,] | [=D,B,]>[D,B,] [D,B,]>[D,B,] [D,B,] [D,B,]2 [D,G,] | %7
[M:15/16] [=D,=A,]>[D,A,][D,A,]-[D,A,]/[D,A,]/[D,A,]-<[D,A,][B,,B,]3/2 |[M:1/8] [B,A] | %9
[M:4/4] [E,B,]2 [F,B,]2 [G,B,]3[K:treble] [G,D] | [A,C]2 [B,D][B,D] [CE]3[K:bass] [A,C] | %11
 [E,B,]>[E,E] [E,E]>[E,E] [E,E]>E, =D,>E, | B,,>_C, =C,>D, =D,>_D, C,>=D, | %13
 [E,B,]2 [F,B,]2 [G,B,]3[K:treble] [G,D] | [A,C]2 [B,D][B,D] [CE]3[K:bass] [A,C] | %15
 [E,B,]>[E,E] [E,E]>[E,E] B,,>B,, B,,>B,, | E,6 z2 |] %17
V:3
 x8 | x8 | x8 | x8 | x8 | x8 | x8 |[M:15/16] [_G=d]>[G_d][G=d]-[Gd]/[G_d]/G-<GA3/2 |[M:1/8] x | %9
[M:4/4] G2 A2 B3 B | A2 GG A3 A | x8 | =D2 z2 z4 | G2 z2 z4 | x8 | x8 | x8 |] %17

